packages/core/src/svgs/networks/branded/kardia.svg

<svg width="24" height="24" viewBox="0 0 24 24" fill="none" xmlns="http://www.w3.org/2000/svg">
<path d="M2.01001 7.66832L5.47333 15.3481L11.2252 21L5.52396 3.47205L2.01001 7.66832Z" fill="#9C2131"/>
<path d="M2.01001 7.66832L8.04547 11.2322L5.52396 3.47205L2.01001 7.66832Z" fill="#576B98"/>
<path d="M7.65039 3L9.64533 9.14381L10.8909 9.58554L12.3593 4.97767L7.65039 3Z" fill="#D71B2A"/>
<path d="M21.9906 8.79266L19.226 12.6075L12.8867 10.3286L14.6893 4.83733L19.5906 3.60254L21.9906 8.79266Z" fill="#C41A24"/>
<path d="M17.9188 14.4142L13.4125 20.5581L10.5061 11.7539L17.9188 14.4142Z" fill="#C71C26"/>
<path d="M10.2026 5.57987L10.8913 9.5854L12.3596 4.97754L10.2026 5.57987Z" fill="#A71927"/>
<path d="M9.61496 9.15386L10.8909 9.59559L10.2023 5.59004L7.65039 3L9.61496 9.15386Z" fill="#61395F"/>
<path d="M8.0355 11.2318L5.46331 15.3478L2 7.66797L8.0355 11.2318Z" fill="#614268"/>
<path d="M14.6792 4.84705L16.9779 8.36066L12.8867 10.3384L14.6792 4.84705Z" fill="#DA1728"/>
<path d="M19.5805 3.61243L16.978 8.36083L14.6792 4.84721L19.5805 3.61243Z" fill="#E42735"/>
<path d="M19.2253 12.6075L16.9873 8.35095L22 8.79265L19.2253 12.6075Z" fill="#A61D1E"/>
<path d="M13.5745 15.1571L13.4125 20.5581L10.5061 11.7539L13.5745 15.1571Z" fill="#D71B2A"/>
<path d="M13.4131 20.558L13.5751 15.157L17.9194 14.4142L13.4131 20.558Z" fill="#A51C1C"/>
<path d="M11.2462 20.9999L5.46387 15.3479L9.61582 16.1209L11.2462 20.9999Z" fill="#721919"/>
</svg>

<svg xmlns="http://www.w3.org/2000/svg" width="24" height="24" fill="none" viewBox="0 0 24 24">
    <path fill="#9C2131" d="m2.01 7.668 3.463 7.68L11.225 21 5.524 3.472z"/>
    <path fill="#576B98" d="m2.01 7.668 6.035 3.564-2.521-7.76z"/>
    <path fill="#D71B2A" d="m7.65 3 1.995 6.144 1.246.442 1.468-4.608z"/>
    <path fill="#C41A24" d="m21.99 8.793-2.764 3.815-6.34-2.28 1.803-5.49 4.902-1.235z"/>
    <path fill="#C71C26" d="m17.919 14.414-4.507 6.144-2.906-8.804z"/>
    <path fill="#A71927" d="m10.203 5.58.688 4.005 1.469-4.607z"/>
    <path fill="#61395F" d="m9.615 9.154 1.276.442-.689-4.006L7.65 3z"/>
    <path fill="#614268" d="m8.036 11.232-2.573 4.116L2 7.668z"/>
    <path fill="#DA1728" d="m14.68 4.847 2.298 3.514-4.091 1.977z"/>
    <path fill="#E42735" d="m19.58 3.612-2.602 4.749-2.299-3.514z"/>
    <path fill="#A61D1E" d="M19.225 12.608 16.987 8.35 22 8.793z"/>
    <path fill="#D71B2A" d="m13.575 15.157-.162 5.401-2.907-8.804z"/>
    <path fill="#A51C1C" d="m13.413 20.558.162-5.401 4.344-.743z"/>
    <path fill="#721919" d="m11.246 21-5.782-5.652 4.152.773z"/>
</svg>
